www/assets/icons/severe_cold.svg

<svg xmlns="http://www.w3.org/2000/svg" width="24" height="24" viewBox="0 0 24 24" fill='currentColor'><path d="m12.5 10.41 4-4L15.09 5 12.5 7.59V4h-2v3.59L7.91 5 6.5 6.41l4 4V12H8.91l-4-4L3.5 9.41 6.09 12H2.5v2h3.59L3.5 16.59 4.91 18l4-4h1.59v1.59l-4 4L7.91 21l2.59-2.59V22h2v-3.59L15.09 21l1.41-1.41-4-4V14h1.59l4 4 1.41-1.41L16.91 14h3.59v-2h-8zm9-8.41h-2v5h2zm0 6h-2v2h2z"/></svg>

<svg width="24" height="24" viewBox="0 0 24 24" xmlns="http://www.w3.org/2000/svg" fill='currentColor'><path d="M12.5 10.41L16.5 6.41L15.09 5L12.5 7.59V4H10.5V7.59L7.91 5L6.5 6.41L10.5 10.41V12H8.91L4.91 8L3.5 9.41L6.09 12H2.5V14H6.09L3.5 16.59L4.91 18L8.91 14H10.5V15.59L6.5 19.59L7.91 21L10.5 18.41V22H12.5V18.41L15.09 21L16.5 19.59L12.5 15.59V14H14.09L18.09 18L19.5 16.59L16.91 14H20.5V12H12.5V10.41Z"/><path d="M21.5 2H19.5V7H21.5V2Z"/><path d="M21.5 8H19.5V10H21.5V8Z"/></svg>
